X:1
T:Minuet No. 3
T:Minuet No. 3 
T:J.S Bach 
T:Isaac Yung Lopes 
T:Trio of cellos
C:J.S. Bach
%%score 1 2 3
L:1/8
M:3/4
K:C
V:1 bass nm="Violoncelo"
V:2 bass nm="Violoncelo"
V:3 bass nm="Violoncelo"
V:1
!mp! vG,2 (C,D,)E,F, | G,2 (.C,2 .C,2) | A,2 (F,G,)A,B, | C2 (.C,2 .C,2) | F,2 (G,F,)E,D, | %5
 E,2 (F,E,)D,C, | B,,2 (C,D,)E,C, | E, D,4- D, | vG,2 (C,D,)E,F, | G,2 (.C,2 .C,2) | %10
 A,2 (F,G,)A,B, | C2 (.C,2 .C,2) | F,2 (G,F,)E,D, | E,2 (F,E,)D,C, |1 D,2 (E,D,)C,B,, | C,6 :|2 %16
 D,2 (E,D,)!8va(!CB, | C6 |:!mf! ve2 (cd)ec | d2 (GA)!8va)!B,G, | C2 (A,B,)CA, | ^F,2 E,F, D,2 | %22
!<(! (D,E,)^F,G,A,B,!<)! | C2 B,2 A,2 | B,2 (.D,2!8va(! .^F2) |!>(! G6!>)! |!p! vG2 CB, C2 | %27
 A2 CB, C2 | G2 (.F2!8va)! .E,2) | (D,C,)B,,C, D,2 |!<(! (G,,A,,)B,,C,D,E,!<)! | F,2 E,2 D,2 |1 %32
!>(! (E,G,)!8va(! (.C2 .B,2)!>)! | C6!8va)! :|2 E,G,!>(! (.C,2 .B,,2)!>)! | !fermata!C,6 |] %36
V:2
!mf! G,,6 | B,,6 | A,,6 | C,6 | F,,6 | E,,6 | D,,6 | E,, D,,4- D,, | G,,6 | B,,6 | A,,6 | C,6 | %12
 F,,6 | E,,6 |1 D,,6 | C,,6 :|2 D,,6 | C,,6 |: E,6 | D,6 | C,6 | ^F,,6 |!<(! D,,2 ^F,,2 B,,2!<)! | %23
 C,6 | B,,6 | G,,6 | G,,6 | A,,6 | G,,6 | D,,6 | G,,2 B,,2 D,2 | F,,6 |1 (C,,6 | C,,6) :|2 %34
 [C,,G,,]6 | !fermata![C,,G,,]6 |] %36
V:3
!mp! z2 (CDEF) | z2 (E,F,G,A,) | z2 (F,G,A,B,) | z2 (CB,A,G,) | z2 (B,A,G,F,) | z2 (F,E,D,C,) | %6
 z2 (A,,B,,C,D,) | E D4- D | z2 (CDEF) | z2 (E,F,G,A,) | z2 (F,G,A,B,) | z2 (CB,A,G,) | %12
 z2 (B,A,G,F,) | z2 (F,E,D,C,) |1 z2 (G,F,E,D,) | C6 :|2 z2 (G,F,E,D,) | C6 |: z2 (G,A,B,C) | %19
 z2 (F,G,A,B,) | z2 (CB,A,G,) | z2 (A,G,F,E,) |!8va(!!<(! DEFGAB!8va)!!<)! | z2 (FEDC) | %24
 z2 (DCB,A,) |!8va(! G6!8va)! |!p! z2 (EDCB,) | z2 (DCB,A,) | z2 (A,G,F,E,) | z2 (D,C,B,,A,,) | %30
!8va(!!<(! G,A,B,CDE!8va)!!<)! | z2 (B,A,G,F,) |1 z2 (G,F,E,D,) | z2 (F,E,D,C,) :|2 %34
 DF!>(! (.C2 .B,2)!>)! | !fermata!C6 |] %36

